ncols 20
nrows 20
xllcorner -122.5
yllcorner 37.5
cellsize 0.001
NODATA_value -9999
150.2 152.5 155.8 160.3 166.1 172.5 178.2 182.5 185.0 186.2 186.8 186.5 185.5 183.2 180.1 176.0 171.5 166.8 162.0 157.5
153.5 157.2 162.0 168.5 176.2 184.5 192.0 198.2 202.5 205.0 206.0 205.8 204.2 201.0 196.5 191.0 185.0 178.5 172.0 166.0
158.0 163.5 170.5 179.5 190.0 201.2 211.0 218.5 223.2 225.8 226.8 226.5 224.5 220.5 214.5 207.0 199.0 190.5 182.0 174.0
164.2 172.0 181.5 193.5 207.0 221.0 233.5 243.0 249.2 252.5 254.0 253.8 251.5 246.5 239.0 230.0 220.2 209.5 199.0 189.2
172.5 182.8 195.5 211.0 228.5 246.5 262.5 274.5 282.2 286.5 288.5 288.2 285.5 279.5 270.5 259.2 247.0 234.0 221.0 209.0
182.5 195.5 212.0 231.5 253.5 276.0 296.0 311.0 320.5 325.8 328.2 328.0 324.8 317.5 306.5 292.8 278.0 262.5 247.0 232.5
193.8 209.5 230.0 254.0 281.0 308.5 332.5 350.5 362.0 368.5 371.5 371.2 367.5 359.0 346.0 330.0 312.5 294.0 276.0 258.5
205.5 224.0 248.5 277.0 309.0 341.5 369.5 390.5 404.0 411.5 415.0 414.5 410.0 400.5 386.0 368.0 348.0 327.5 307.0 287.5
217.0 238.0 266.0 299.0 336.0 373.0 405.0 429.0 444.5 453.0 457.0 456.2 451.0 440.0 423.5 403.5 381.5 358.5 336.0 314.5
227.0 250.5 282.0 319.0 360.0 401.0 436.5 463.0 480.2 489.5 494.0 493.0 487.0 475.0 457.0 435.0 411.0 386.0 361.5 338.5
235.0 260.5 294.5 335.0 380.0 424.0 462.0 491.0 509.5 519.5 524.5 523.5 517.0 504.0 485.0 461.5 436.0 409.5 383.5 358.8
240.5 267.5 303.5 346.0 393.5 440.0 480.0 510.5 530.0 540.5 545.8 545.0 538.0 524.0 504.0 479.5 453.0 425.5 398.5 372.8
243.0 271.0 308.5 352.5 401.5 449.5 490.8 522.5 542.8 554.0 559.5 558.5 551.0 536.5 515.5 490.0 462.5 434.0 406.0 379.2
242.0 270.0 308.5 353.5 403.0 451.5 493.0 525.5 546.2 557.5 563.0 562.0 554.0 539.0 517.5 491.5 463.5 434.5 406.0 378.8
237.0 264.5 302.0 346.0 394.5 442.5 483.5 516.0 537.0 548.5 554.0 553.0 545.0 530.0 508.5 482.5 454.5 425.5 397.0 369.8
228.5 254.5 290.0 331.5 378.0 423.5 463.0 494.5 515.5 527.0 532.5 531.5 523.5 508.5 487.0 461.0 433.0 404.0 375.5 348.5
217.0 240.5 273.0 311.5 355.0 397.5 434.5 464.0 484.5 495.5 500.5 499.5 491.5 476.5 455.5 430.0 402.5 374.0 346.0 319.5
203.5 224.0 252.5 287.0 326.5 365.5 399.5 426.5 445.5 456.0 460.5 459.5 451.5 437.0 416.5 392.0 365.5 338.0 311.0 285.5
189.0 206.0 230.0 260.0 295.0 329.5 360.0 384.0 401.0 410.5 414.5 413.5 405.5 391.5 372.0 348.5 323.5 297.5 272.5 249.0
174.5 188.5 208.5 234.0 264.5 295.0 322.0 343.5 358.5 367.0 370.5 369.5 362.0 348.5 330.5 308.5 285.0 261.0 238.0 216.5
